X: 153
T: Learn the Songs of Victory
C: Teton Sioux band 1911-1914
N: Derived from sioux149.krn
O: South Dakota, U.S.A.
N: Teton Sioux Music by Frances Densmore, 1918
Z: transcribed to **kern format by Craig Sapp
L: 1/4
M: 3/4
Q: 1/4=58
K: A clef=treble
%%linebreak <none>
FFF [I:setbarnb 1]||  
[M:2/4]c(3c/ B/ B/ ||  
[M:3/4]BB/ B/-B | 
BB2 | 
B3 ||  
[M:2/4]c(3c/ d/ c/ | 
B3/A/ | 
AA3// F// | 
FF | 
F2- | 
F2- ||  
[M:3/4]F3 ||  
[M:2/4]FF | 
BB ||  
[M:3/4]B2-B/ c// B// ||  
[M:2/4]BB | 
FF ||  
[M:3/4]EDD ||  
[M:2/4]ED | 
B,B, | 
B,2- | 
B,2- ||  
[M:3/4]B,3 ||  
[M:2/4]B,2 | 
FF ||  
[M:3/4]F2G// F3// | 
E2D ||  
[M:2/4]D/> B,/B, | 
B,3/G,/ | 
B,2 | 
G,G, ||  
[M:3/4]G,3 | 
G,z2 ||  
[M:2/4]FF | 
c(d// c3//) | 
B2 | 
B2- | 
BB | 
Bc | 
c/< B/B | 
AA | 
FF | 
F2- | 
F2- ||  
[M:3/4]F3 ||  
[M:2/4]FF | 
B3/B/ | 
B2 ||  
[M:3/4]BB(c// B3//) ||  
[M:2/4]B3/A/ ||  
[M:3/4]FF(E3// D//) ||  
[M:2/4]D/ D/-D | 
(E/ D/)D | 
D/ B,/B, | 
B,3/B,/ | 
B,2- ||  
[M:3/4]B,3 ||  
[M:2/4]B,B, | 
F3/(A// G//) | 
F2 | 
(F/ E/)E | 
E2 | 
D3/D/ | 
B,B, | 
B,G, | 
B,2 | 
G,z |]  



